Numix-Square/48x48/apps/steam_icon_60.svg

<svg xmlns="http://www.w3.org/2000/svg" xmlns:xlink="http://www.w3.org/1999/xlink" width="48" viewBox="0 0 13.546667 13.546667" height="48">
 <defs>
  <linearGradient id="0">
   <stop stop-color="#303030"/>
   <stop offset="1" stop-color="#545454"/>
  </linearGradient>
  <linearGradient gradientTransform="matrix(0.28222223,0,0,0.28222223,0,-283.45334)" xlink:href="#0" id="1" y1="1050.36" x2="0" y2="1006.36" gradientUnits="userSpaceOnUse"/>
 </defs>
 <g transform="matrix(0.28222223,0,0,0.28222223,0,-283.45334)">
  <path transform="translate(0,1004.3622)" d="M 5.1875,1 C 2.8707723,1 1,2.8707723 1,5.1875 l 0,37.625 C 1,45.129228 2.8707723,47 5.1875,47 l 37.625,0 C 45.129228,47 47,45.129228 47,42.8125 L 47,5.1875 C 47,2.8707723 45.129228,1 42.8125,1 L 5.1875,1 z m 0.1875,0.25 37.25,0 c 2.291546,0 4.125,1.8334541 4.125,4.125 l 0,37.25 c 0,2.291546 -1.833454,4.125 -4.125,4.125 l -37.25,0 C 3.0834541,46.75 1.25,44.916546 1.25,42.625 l 0,-37.25 C 1.25,3.0834541 3.0834541,1.25 5.375,1.25 z" opacity="0.05"/>
  <path transform="translate(0,1004.3622)" d="M 5.375,1.25 C 3.0834541,1.25 1.25,3.0834541 1.25,5.375 l 0,37.25 c 0,2.291546 1.8334541,4.125 4.125,4.125 l 37.25,0 c 2.291546,0 4.125,-1.833454 4.125,-4.125 l 0,-37.25 C 46.75,3.0834541 44.916546,1.25 42.625,1.25 l -37.25,0 z m 0.21875,0.25 36.8125,0 C 44.672614,1.5 46.5,3.3273859 46.5,5.59375 l 0,36.8125 C 46.5,44.672614 44.672614,46.5 42.40625,46.5 l -36.8125,0 C 3.3273859,46.5 1.5,44.672614 1.5,42.40625 l 0,-36.8125 C 1.5,3.3273859 3.3273859,1.5 5.59375,1.5 z" opacity="0.1"/>
  <path transform="translate(0,1004.3622)" d="M 5.59375,1.5 C 3.3273859,1.5 1.5,3.3273859 1.5,5.59375 l 0,36.8125 C 1.5,44.672614 3.3273859,46.5 5.59375,46.5 l 36.8125,0 C 44.672614,46.5 46.5,44.672614 46.5,42.40625 l 0,-36.8125 C 46.5,3.3273859 44.672614,1.5 42.40625,1.5 l -36.8125,0 z m 0.09375,0.125 36.625,0 c 2.253773,0 4.0625,1.8087269 4.0625,4.0625 l 0,36.625 c 0,2.253773 -1.808727,4.0625 -4.0625,4.0625 l -36.625,0 c -2.2537731,0 -4.0625,-1.808727 -4.0625,-4.0625 l 0,-36.625 C 1.625,3.4337269 3.4337269,1.625 5.6875,1.625 z" opacity="0.2"/>
  <path transform="translate(0,1004.3622)" d="M 5.6875,1.625 C 3.4337269,1.625 1.625,3.4337269 1.625,5.6875 l 0,36.625 c 0,2.253773 1.8087269,4.0625 4.0625,4.0625 l 36.625,0 c 2.253773,0 4.0625,-1.808727 4.0625,-4.0625 l 0,-36.625 c 0,-2.2537731 -1.808727,-4.0625 -4.0625,-4.0625 l -36.625,0 z m 0.09375,0.125 36.4375,0 c 2.241182,0 4.03125,1.7900679 4.03125,4.03125 l 0,36.4375 c 0,2.241182 -1.790068,4.03125 -4.03125,4.03125 l -36.4375,0 C 3.5400679,46.25 1.75,44.459932 1.75,42.21875 l 0,-36.4375 C 1.75,3.5400679 3.5400679,1.75 5.78125,1.75 z" opacity="0.3"/>
  <path transform="translate(0,1004.3622)" d="M 5.78125,1.75 C 3.5400679,1.75 1.75,3.5400679 1.75,5.78125 l 0,36.4375 c 0,2.241182 1.7900679,4.03125 4.03125,4.03125 l 36.4375,0 c 2.241182,0 4.03125,-1.790068 4.03125,-4.03125 l 0,-36.4375 C 46.25,3.5400679 44.459932,1.75 42.21875,1.75 l -36.4375,0 z m 0.125,0.125 36.1875,0 c 2.228591,0 4.03125,1.802659 4.03125,4.03125 l 0,36.1875 c 0,2.228591 -1.802659,4.03125 -4.03125,4.03125 l -36.1875,0 C 3.677659,46.125 1.875,44.322341 1.875,42.09375 l 0,-36.1875 C 1.875,3.677659 3.677659,1.875 5.90625,1.875 z" opacity="0.4"/>
  <rect width="44.25" height="44.25" x="1.875" y="1006.24" rx="4.02" opacity="0.5"/>
 </g>
 <rect width="12.418" height="12.418" x="0.564" y="0.564" rx="1.129" fill="url(#1)"/>
 <path d="M 24.1875 9 L 24.1875 12.625 C 26.250946 12.658759 28.191991 13.224641 29.84375 14.21875 L 31.65625 11.125 C 29.461806 9.8162197 26.919797 9.0338461 24.1875 9 z M 33.4375 12.375 C 33.718417 12.603137 33.986519 12.846302 34.25 13.09375 C 33.984648 12.844456 33.720451 12.604652 33.4375 12.375 z M 35.3125 14.1875 C 35.452872 14.349042 35.585299 14.519979 35.71875 14.6875 C 35.584464 14.518931 35.453781 14.350042 35.3125 14.1875 z M 37.46875 17.4375 L 35.40625 18 C 36.873259 20.430456 36.754061 21.568601 37 23 C 37.238567 25.953167 36.625306 27.486621 36 29 L 34.21875 29 C 33.348638 30.77805 32.031452 32.299545 30.40625 33.40625 L 32.625 36.25 C 36.470826 33.534219 39 29.066085 39 24 C 39 21.642543 38.438065 19.422438 37.46875 17.4375 z M 35.1875 18.0625 L 33.90625 18.4375 C 33.917644 18.457757 33.926226 18.479667 33.9375 18.5 L 35.1875 18.0625 z " transform="scale(0.28222223,0.28222223)" fill="#d64937"/>
 <path d="M 18.125 15.40625 C 16.927652 16.229405 15.92239 17.291619 15.15625 18.53125 L 16.40625 19.15625 C 15.516887 20.555554 15 22.219051 15 24 C 15 25.380288 15.322187 26.675955 15.875 27.84375 L 14.59375 28.46875 C 14.678344 28.64705 14.780528 28.827613 14.875 29 L 14.8125 29 C 15.071184 29.467218 15.394179 29.892455 15.71875 30.3125 C 16.458668 31.270067 17.350267 32.097008 18.375 32.75 C 20.001367 33.786372 21.917094 34.40625 24 34.40625 C 24.263352 34.40625 24.52288 34.393907 24.78125 34.375 C 25.035246 34.356413 25.282705 34.317466 25.53125 34.28125 C 25.681096 34.258738 25.821167 34.247694 25.96875 34.21875 C 26.064211 34.200732 26.155488 34.176819 26.25 34.15625 C 26.469002 34.106707 26.692817 34.063245 26.90625 34 C 26.9285 33.993626 26.946562 33.975266 26.96875 33.96875 C 27.880166 33.7011 28.741954 33.300353 29.53125 32.8125 L 28.125 30.8125 L 28.03125 30.6875 C 26.853928 31.398759 25.474956 31.8125 24 31.8125 L 24 33 C 22.271323 33 20.65598 32.500146 19.28125 31.65625 L 20.03125 30.71875 C 20.011195 30.70719 19.988433 30.699383 19.96875 30.6875 C 19.852276 30.616858 19.737394 30.545218 19.625 30.46875 C 19.368469 30.295482 19.139837 30.107967 18.90625 29.90625 C 18.632791 29.668481 18.36328 29.398104 18.125 29.125 C 17.91177 28.880607 17.713335 28.6446 17.53125 28.375 C 17.518595 28.356264 17.512496 28.331352 17.5 28.3125 C 17.479065 28.280902 17.457989 28.250665 17.4375 28.21875 C 17.260894 27.943654 17.110597 27.64075 16.96875 27.34375 C 16.962687 27.331055 16.943497 27.325232 16.9375 27.3125 C 16.462858 26.303879 16.1875 25.189108 16.1875 24 C 16.1875 22.416123 16.658242 20.943032 17.46875 19.71875 C 17.489639 19.686921 17.509929 19.656494 17.53125 19.625 C 17.648488 19.453439 17.77596 19.286428 17.90625 19.125 C 18.188224 18.772708 18.505509 18.454394 18.84375 18.15625 C 18.877143 18.126846 18.903604 18.09135 18.9375 18.0625 C 19.126455 17.90171 19.3266 17.736416 19.53125 17.59375 C 19.538102 17.588975 19.555632 17.598505 19.5625 17.59375 L 18.90625 16.5625 C 18.894135 16.570829 18.887072 16.585363 18.875 16.59375 L 18.125 15.40625 z M 34.40625 25.1875 C 34.359793 25.590968 34.278966 25.987418 34.1875 26.375 C 34.279319 25.986238 34.359693 25.591836 34.40625 25.1875 z M 34.1875 26.375 C 34.111496 26.69706 34.042877 27.003029 33.9375 27.3125 C 34.03919 27.011117 34.113562 26.688057 34.1875 26.375 z M 32.8125 29.59375 C 32.602184 29.918294 32.369539 30.232846 32.125 30.53125 C 32.371423 30.229849 32.6008 29.921715 32.8125 29.59375 z M 32.125 30.53125 C 31.758372 30.978636 31.373481 31.39982 30.9375 31.78125 C 31.370747 31.400767 31.760282 30.977338 32.125 30.53125 z " transform="scale(0.28222223,0.28222223)" fill="#d64937"/>
 <path d="M 31.65625 11.125 L 29.84375 14.21875 C 31.539306 15.239218 32.93363 16.708283 33.90625 18.4375 L 35.1875 18.0625 L 35.40625 18 L 37.46875 17.4375 C 36.184587 14.807824 34.157295 12.616639 31.65625 11.125 z " transform="scale(0.28222223,0.28222223)" fill="#3e9ade"/>
 <path d="M 23.8125 9 C 18.181399 9.0690945 13.287412 12.23086 10.78125 16.875 L 12.3125 17.6875 C 13.304722 15.848826 14.730261 14.279281 16.4375 13.09375 L 17.71875 14.53125 C 19.472132 13.367486 21.554592 12.66184 23.8125 12.625 L 23.8125 9 z " transform="scale(0.28222223,0.28222223)" fill="#3e9ade"/>
 <path d="M 9.03125 23 C 9.0092461 23.33243 9 23.661998 9 24 C 9 26.220369 9.5092415 28.322839 10.375 30.21875 L 12 29.46875 C 14.70742 34.62893 18 36.677196 24 37.25 L 24 39 C 27.065861 39 29.90594 38.078692 32.28125 36.5 L 30.0625 33.625 C 28.309404 34.728718 26.22644 35.375 24 35.375 C 17.713582 35.375 12.625 30.286418 12.625 24 C 12.625 23.660041 12.658307 23.332389 12.6875 23 L 9.03125 23 z " transform="scale(0.28222223,0.28222223)" fill="#3e9ade"/>
 <path d="M 24 13.59375 L 24 15 L 24 16 L 24 16.1875 C 24.331526 16.1875 24.648361 16.209787 24.96875 16.25 C 24.989337 16.2526 25.010709 16.2473 25.03125 16.25 C 25.064663 16.254394 25.0917 16.276431 25.125 16.28125 C 25.431255 16.326161 25.737696 16.389252 26.03125 16.46875 C 26.261406 16.53108 26.497501 16.605129 26.71875 16.6875 C 26.809661 16.721339 26.910709 16.744141 27 16.78125 C 27.246589 16.884009 27.485735 16.998461 27.71875 17.125 C 27.77258 17.154232 27.821928 17.18832 27.875 17.21875 C 28.822513 17.761708 29.636764 18.499792 30.28125 19.375 C 30.492711 19.66205 30.702774 19.966339 30.875 20.28125 C 30.89711 20.321661 30.916088 20.36542 30.9375 20.40625 C 31.03234 20.588642 31.106971 20.778276 31.1875 20.96875 C 31.266969 21.154302 31.341021 21.338698 31.40625 21.53125 C 31.423931 21.584098 31.452171 21.634152 31.46875 21.6875 C 31.51392 21.83088 31.5568 21.978211 31.59375 22.125 C 31.619297 22.228156 31.634831 22.332767 31.65625 22.4375 C 31.676305 22.534399 31.702369 22.620576 31.71875 22.71875 C 31.745219 22.878925 31.764678 23.024183 31.78125 23.1875 C 31.808533 23.450371 31.8125 23.729998 31.8125 24 C 31.8125 25.465678 31.390506 26.827557 30.6875 28 L 32.0625 28 C 31.319678 29.496109 30.157706 30.743904 28.75 31.625 L 28.125 30.8125 L 29.53125 32.8125 C 32.179495 31.175656 34.034594 28.415247 34.40625 25.1875 C 34.378116 25.202984 34.34085 25.20362 34.3125 25.21875 C 34.357241 24.820708 34.40625 24.409517 34.40625 24 C 34.40625 22.069499 33.880853 20.26661 32.96875 18.71875 L 31.53125 19.0625 C 30.784052 17.925167 29.764897 16.979678 28.59375 16.28125 L 29.4375 15.15625 C 27.852202 14.180429 26.002249 13.59375 24 13.59375 z " transform="scale(0.28222223,0.28222223)" fill="#3e9ade"/>
</svg>

<svg viewBox="0 0 48 48"><defs><linearGradient id="linearGradient3764" x1="1" x2="47" gradientUnits="userSpaceOnUse" gradientTransform="translate(-47.997785,0.00221467)"><stop stop-color="#404040" stop-opacity="1"/><stop offset="1" stop-color="#4a4a4a" stop-opacity="1"/></linearGradient><clipPath id="clipPath-129472564"><g transform="translate(0,-1004.3622)"><rect rx="4" y="1005.36" x="1" height="46" width="46" fill="#1890d0"/></g></clipPath><clipPath id="clipPath-145648091"><g transform="translate(0,-1004.3622)"><rect rx="4" y="1005.36" x="1" height="46" width="46" fill="#1890d0"/></g></clipPath></defs><g><g transform="translate(0,-1004.3622)"><path d="m 5 1006.36 c -2.216 0 -4 1.784 -4 4 l 0 37.25 c 0 2.216 1.784 4 4 4 l 38 0 c 2.216 0 4 -1.784 4 -4 l 0 -37.25 c 0 -2.216 -1.784 -4 -4 -4 l -38 0 z m -4 41.5 0 0.5 c 0 2.216 1.784 4 4 4 l 38 0 c 2.216 0 4 -1.784 4 -4 l 0 -0.5 c 0 2.216 -1.784 4 -4 4 l -38 0 c -2.216 0 -4 -1.784 -4 -4 z" opacity="0.02"/><path d="m 1 1047.61 0 0.25 c 0 2.216 1.784 4 4 4 l 38 0 c 2.216 0 4 -1.784 4 -4 l 0 -0.25 c 0 2.216 -1.784 4 -4 4 l -38 0 c -2.216 0 -4 -1.784 -4 -4 z" opacity="0.05"/><rect width="46" height="46" x="1" y="1005.61" rx="4" opacity="0.1"/></g></g><g><rect width="46" height="46" x="-46.998" y="1" rx="4" transform="matrix(0,-1,1,0,0,0)" fill="url(#linearGradient3764)" fill-opacity="1"/></g><g/><g><g clip-path="url(#clipPath-129472564)"><g opacity="0.1"><!-- color: #4a4a4a --><g><path d="m 24.19 9 l 0 3.625 c 2.063 0.035 4 0.602 5.656 1.594 l 1.813 -3.094 c -2.195 -1.309 -4.738 -2.09 -7.469 -2.125 m 9.25 3.375 c 0.281 0.227 0.547 0.473 0.813 0.719 c -0.266 -0.25 -0.531 -0.488 -0.813 -0.719 m 1.875 1.813 c 0.137 0.164 0.273 0.332 0.406 0.5 c -0.137 -0.168 -0.273 -0.336 -0.406 -0.5 m 2.156 3.25 l -2.066 0.563 c 1.469 2.43 1.352 3.57 1.598 5 c 0.238 2.953 -0.375 4.488 -1 6 l -1.781 0 c -0.871 1.777 -2.188 3.301 -3.816 4.406 l 2.223 2.844 c 3.844 -2.715 6.375 -7.184 6.375 -12.25 c 0 -2.355 -0.563 -4.578 -1.531 -6.563 m -2.281 0.625 l -1.281 0.375 c 0.012 0.02 0.02 0.043 0.031 0.063 m 1.25 -0.438" stroke="none" fill-rule="nonzero" fill-opacity="1" fill="#000"/><path d="m 18.13 15.406 c -1.195 0.824 -2.203 1.883 -2.969 3.125 l 1.25 0.625 c -0.887 1.398 -1.406 3.063 -1.406 4.844 c 0 1.379 0.324 2.676 0.875 3.844 l -1.281 0.625 c 0.086 0.18 0.188 0.359 0.281 0.531 l -0.063 0 c 0.258 0.469 0.582 0.891 0.906 1.313 c 0.742 0.957 1.633 1.785 2.656 2.438 c 1.625 1.035 3.543 1.656 5.625 1.656 c 0.262 0 0.523 -0.012 0.781 -0.031 c 0.254 -0.02 0.5 -0.059 0.75 -0.094 c 0.148 -0.023 0.289 -0.035 0.438 -0.063 c 0.094 -0.02 0.188 -0.043 0.281 -0.063 c 0.219 -0.051 0.441 -0.094 0.656 -0.156 c 0.023 -0.008 0.039 -0.023 0.063 -0.031 c 0.91 -0.27 1.773 -0.668 2.563 -1.156 l -1.406 -2 l -0.094 -0.125 c -1.176 0.711 -2.555 1.125 -4.03 1.125 l 0 1.188 c -1.73 0 -3.355 -0.5 -4.73 -1.344 l 0.75 -0.938 c -0.02 -0.012 -0.043 -0.02 -0.063 -0.031 c -0.113 -0.07 -0.23 -0.141 -0.344 -0.219 c -0.258 -0.172 -0.484 -0.359 -0.719 -0.563 c -0.273 -0.238 -0.543 -0.508 -0.781 -0.781 c -0.211 -0.242 -0.41 -0.48 -0.594 -0.75 c -0.012 -0.02 -0.02 -0.043 -0.031 -0.063 c -0.02 -0.031 -0.039 -0.063 -0.063 -0.094 c -0.176 -0.277 -0.328 -0.578 -0.469 -0.875 c -0.004 -0.016 -0.023 -0.02 -0.031 -0.031 c -0.473 -1.012 -0.75 -2.125 -0.75 -3.313 c 0 -1.586 0.473 -3.059 1.281 -4.281 c 0.02 -0.031 0.043 -0.063 0.063 -0.094 c 0.117 -0.172 0.246 -0.34 0.375 -0.5 c 0.281 -0.352 0.602 -0.672 0.938 -0.969 c 0.035 -0.031 0.063 -0.066 0.094 -0.094 c 0.191 -0.164 0.391 -0.328 0.594 -0.469 c 0.008 -0.008 0.027 0.004 0.031 0 l -0.656 -1.031 c -0.012 0.008 -0.016 0.023 -0.02 0.031 l -0.75 -1.191 m 16.27 9.785 c -0.047 0.402 -0.125 0.801 -0.219 1.188 c 0.094 -0.391 0.172 -0.781 0.219 -1.188 m -0.219 1.188 c -0.074 0.32 -0.145 0.629 -0.25 0.938 c 0.102 -0.301 0.176 -0.625 0.25 -0.938 m -1.375 3.219 c -0.211 0.324 -0.441 0.641 -0.688 0.938 c 0.246 -0.301 0.477 -0.609 0.688 -0.938 m -0.688 0.938 c -0.367 0.449 -0.75 0.871 -1.188 1.25 c 0.434 -0.379 0.824 -0.805 1.188 -1.25 m 0 0" stroke="none" fill-rule="nonzero" fill-opacity="1" fill="#000"/><path d="m 31.656 11.125 l -1.813 3.094 c 1.695 1.02 3.09 2.492 4.063 4.219 l 1.281 -0.375 l 0.219 -0.063 l 2.063 -0.563 c -1.285 -2.629 -3.313 -4.82 -5.813 -6.313 m 0 0" stroke="none" fill-rule="nonzero" fill-opacity="1" fill="#000"/><path d="m 23.813 9 c -5.629 0.07 -10.523 3.23 -13.03 7.875 l 1.531 0.813 c 0.992 -1.84 2.418 -3.406 4.125 -4.594 l 1.281 1.438 c 1.754 -1.164 3.836 -1.867 6.094 -1.906 m 0 -3.625" stroke="none" fill-rule="nonzero" fill-opacity="1" fill="#000"/><path d="m 9.03 23 c -0.023 0.332 -0.031 0.66 -0.031 1 c 0 2.219 0.508 4.324 1.375 6.219 l 1.625 -0.75 c 2.707 5.16 6 7.207 12 7.781 l 0 1.75 c 3.066 0 5.906 -0.922 8.281 -2.5 l -2.219 -2.875 c -1.754 1.105 -3.836 1.75 -6.06 1.75 c -6.285 0 -11.375 -5.09 -11.375 -11.375 c 0 -0.34 0.035 -0.668 0.063 -1 m -3.656 0" stroke="none" fill-rule="nonzero" fill-opacity="1" fill="#000"/><path d="m 24 13.594 l 0 2.594 c 0.332 0 0.648 0.023 0.969 0.063 c 0.02 0.004 0.043 -0.004 0.063 0 c 0.035 0.004 0.063 0.027 0.094 0.031 c 0.309 0.047 0.613 0.109 0.906 0.188 c 0.23 0.063 0.465 0.137 0.688 0.219 c 0.094 0.035 0.191 0.059 0.281 0.094 c 0.246 0.105 0.488 0.227 0.719 0.355 c 0.055 0.02 0.105 0.063 0.156 0.094 c 0.949 0.543 1.762 1.281 2.406 2.156 c 0.211 0.277 0.422 0.59 0.594 0.895 c 0.023 0.043 0.043 0.086 0.063 0.125 c 0.098 0.191 0.172 0.375 0.25 0.566 c 0.082 0.184 0.156 0.367 0.219 0.563 c 0.023 0.059 0.047 0.105 0.066 0.156 c 0.043 0.148 0.086 0.289 0.125 0.441 c 0.023 0.102 0.039 0.207 0.063 0.313 c 0.023 0.102 0.043 0.188 0.066 0.281 c 0.02 0.16 0.047 0.305 0.063 0.469 c 0.027 0.266 0.031 0.543 0.031 0.816 c 0 1.465 -0.422 2.828 -1.125 4 l 1.375 0 c -0.742 1.496 -1.906 2.742 -3.313 3.625 l -0.625 -0.816 l 1.402 2 c 2.648 -1.637 4.5 -4.395 4.875 -7.625 c -0.023 0.02 -0.063 0.02 -0.094 0.031 c 0.043 -0.398 0.094 -0.813 0.094 -1.219 c 0 -1.938 -0.523 -3.734 -1.438 -5.281 l -1.441 0.344 c -0.746 -1.137 -1.766 -2.082 -2.938 -2.781 l 0.844 -1.125 c -1.582 -0.977 -3.434 -1.563 -5.438 -1.563 m 0 -0.004" stroke="none" fill-rule="nonzero" fill-opacity="1" fill="#000"/></g></g></g></g><g><g clip-path="url(#clipPath-145648091)"><g transform="translate(0,-1)"><!-- color: #4a4a4a --><g><path d="m 24.19 9 l 0 3.625 c 2.063 0.035 4 0.602 5.656 1.594 l 1.813 -3.094 c -2.195 -1.309 -4.738 -2.09 -7.469 -2.125 m 9.25 3.375 c 0.281 0.227 0.547 0.473 0.813 0.719 c -0.266 -0.25 -0.531 -0.488 -0.813 -0.719 m 1.875 1.813 c 0.137 0.164 0.273 0.332 0.406 0.5 c -0.137 -0.168 -0.273 -0.336 -0.406 -0.5 m 2.156 3.25 l -2.066 0.563 c 1.469 2.43 1.352 3.57 1.598 5 c 0.238 2.953 -0.375 4.488 -1 6 l -1.781 0 c -0.871 1.777 -2.188 3.301 -3.816 4.406 l 2.223 2.844 c 3.844 -2.715 6.375 -7.184 6.375 -12.25 c 0 -2.355 -0.563 -4.578 -1.531 -6.563 m -2.281 0.625 l -1.281 0.375 c 0.012 0.02 0.02 0.043 0.031 0.063 m 1.25 -0.438" fill="#d64936" stroke="none" fill-rule="nonzero" fill-opacity="1"/><path d="m 18.13 15.406 c -1.195 0.824 -2.203 1.883 -2.969 3.125 l 1.25 0.625 c -0.887 1.398 -1.406 3.063 -1.406 4.844 c 0 1.379 0.324 2.676 0.875 3.844 l -1.281 0.625 c 0.086 0.18 0.188 0.359 0.281 0.531 l -0.063 0 c 0.258 0.469 0.582 0.891 0.906 1.313 c 0.742 0.957 1.633 1.785 2.656 2.438 c 1.625 1.035 3.543 1.656 5.625 1.656 c 0.262 0 0.523 -0.012 0.781 -0.031 c 0.254 -0.02 0.5 -0.059 0.75 -0.094 c 0.148 -0.023 0.289 -0.035 0.438 -0.063 c 0.094 -0.02 0.188 -0.043 0.281 -0.063 c 0.219 -0.051 0.441 -0.094 0.656 -0.156 c 0.023 -0.008 0.039 -0.023 0.063 -0.031 c 0.91 -0.27 1.773 -0.668 2.563 -1.156 l -1.406 -2 l -0.094 -0.125 c -1.176 0.711 -2.555 1.125 -4.03 1.125 l 0 1.188 c -1.73 0 -3.355 -0.5 -4.73 -1.344 l 0.75 -0.938 c -0.02 -0.012 -0.043 -0.02 -0.063 -0.031 c -0.113 -0.07 -0.23 -0.141 -0.344 -0.219 c -0.258 -0.172 -0.484 -0.359 -0.719 -0.563 c -0.273 -0.238 -0.543 -0.508 -0.781 -0.781 c -0.211 -0.242 -0.41 -0.48 -0.594 -0.75 c -0.012 -0.02 -0.02 -0.043 -0.031 -0.063 c -0.02 -0.031 -0.039 -0.063 -0.063 -0.094 c -0.176 -0.277 -0.328 -0.578 -0.469 -0.875 c -0.004 -0.016 -0.023 -0.02 -0.031 -0.031 c -0.473 -1.012 -0.75 -2.125 -0.75 -3.313 c 0 -1.586 0.473 -3.059 1.281 -4.281 c 0.02 -0.031 0.043 -0.063 0.063 -0.094 c 0.117 -0.172 0.246 -0.34 0.375 -0.5 c 0.281 -0.352 0.602 -0.672 0.938 -0.969 c 0.035 -0.031 0.063 -0.066 0.094 -0.094 c 0.191 -0.164 0.391 -0.328 0.594 -0.469 c 0.008 -0.008 0.027 0.004 0.031 0 l -0.656 -1.031 c -0.012 0.008 -0.016 0.023 -0.02 0.031 l -0.75 -1.191 m 16.27 9.785 c -0.047 0.402 -0.125 0.801 -0.219 1.188 c 0.094 -0.391 0.172 -0.781 0.219 -1.188 m -0.219 1.188 c -0.074 0.32 -0.145 0.629 -0.25 0.938 c 0.102 -0.301 0.176 -0.625 0.25 -0.938 m -1.375 3.219 c -0.211 0.324 -0.441 0.641 -0.688 0.938 c 0.246 -0.301 0.477 -0.609 0.688 -0.938 m -0.688 0.938 c -0.367 0.449 -0.75 0.871 -1.188 1.25 c 0.434 -0.379 0.824 -0.805 1.188 -1.25 m 0 0" fill="#d64936" stroke="none" fill-rule="nonzero" fill-opacity="1"/><path d="m 31.656 11.125 l -1.813 3.094 c 1.695 1.02 3.09 2.492 4.063 4.219 l 1.281 -0.375 l 0.219 -0.063 l 2.063 -0.563 c -1.285 -2.629 -3.313 -4.82 -5.813 -6.313 m 0 0" fill="#3d9ade" stroke="none" fill-rule="nonzero" fill-opacity="1"/><path d="m 23.813 9 c -5.629 0.07 -10.523 3.23 -13.03 7.875 l 1.531 0.813 c 0.992 -1.84 2.418 -3.406 4.125 -4.594 l 1.281 1.438 c 1.754 -1.164 3.836 -1.867 6.094 -1.906 m 0 -3.625" fill="#3d9ade" stroke="none" fill-rule="nonzero" fill-opacity="1"/><path d="m 9.03 23 c -0.023 0.332 -0.031 0.66 -0.031 1 c 0 2.219 0.508 4.324 1.375 6.219 l 1.625 -0.75 c 2.707 5.16 6 7.207 12 7.781 l 0 1.75 c 3.066 0 5.906 -0.922 8.281 -2.5 l -2.219 -2.875 c -1.754 1.105 -3.836 1.75 -6.06 1.75 c -6.285 0 -11.375 -5.09 -11.375 -11.375 c 0 -0.34 0.035 -0.668 0.063 -1 m -3.656 0" fill="#3d9ade" stroke="none" fill-rule="nonzero" fill-opacity="1"/><path d="m 24 13.594 l 0 2.594 c 0.332 0 0.648 0.023 0.969 0.063 c 0.02 0.004 0.043 -0.004 0.063 0 c 0.035 0.004 0.063 0.027 0.094 0.031 c 0.309 0.047 0.613 0.109 0.906 0.188 c 0.23 0.063 0.465 0.137 0.688 0.219 c 0.094 0.035 0.191 0.059 0.281 0.094 c 0.246 0.105 0.488 0.227 0.719 0.355 c 0.055 0.02 0.105 0.063 0.156 0.094 c 0.949 0.543 1.762 1.281 2.406 2.156 c 0.211 0.277 0.422 0.59 0.594 0.895 c 0.023 0.043 0.043 0.086 0.063 0.125 c 0.098 0.191 0.172 0.375 0.25 0.566 c 0.082 0.184 0.156 0.367 0.219 0.563 c 0.023 0.059 0.047 0.105 0.066 0.156 c 0.043 0.148 0.086 0.289 0.125 0.441 c 0.023 0.102 0.039 0.207 0.063 0.313 c 0.023 0.102 0.043 0.188 0.066 0.281 c 0.02 0.16 0.047 0.305 0.063 0.469 c 0.027 0.266 0.031 0.543 0.031 0.816 c 0 1.465 -0.422 2.828 -1.125 4 l 1.375 0 c -0.742 1.496 -1.906 2.742 -3.313 3.625 l -0.625 -0.816 l 1.402 2 c 2.648 -1.637 4.5 -4.395 4.875 -7.625 c -0.023 0.02 -0.063 0.02 -0.094 0.031 c 0.043 -0.398 0.094 -0.813 0.094 -1.219 c 0 -1.938 -0.523 -3.734 -1.438 -5.281 l -1.441 0.344 c -0.746 -1.137 -1.766 -2.082 -2.938 -2.781 l 0.844 -1.125 c -1.582 -0.977 -3.434 -1.563 -5.438 -1.563 m 0 -0.004" fill="#3d9ade" stroke="none" fill-rule="nonzero" fill-opacity="1"/></g></g></g></g><g><g transform="translate(0,-1004.3622)"><path d="m 1 1043.36 0 4 c 0 2.216 1.784 4 4 4 l 38 0 c 2.216 0 4 -1.784 4 -4 l 0 -4 c 0 2.216 -1.784 4 -4 4 l -38 0 c -2.216 0 -4 -1.784 -4 -4 z" opacity="0.1"/></g></g></svg>
